X: 22965
T: Lass Of Carracastle, The
R: reel
M: 4/4
K: Cmajor
G2 cA G/G/G EG|AcGE FDDF|E~C3 E~G3|A/B/c df eccA|
GAcA G2 EG|cGEG FDDF|E~C3 E~G3|1 A/B/c df eccA:|2 A/B/c df eccd||
efge f2 de|fedc BG G2|egge f2 ef|gagf eccd|
efge f2 de|fedc BGGB|AGAc ~B3d|1 cegf eccd:|2 cegf eccA||

